material/.icons/material/khanda.svg

<svg xmlns="http://www.w3.org/2000/svg" viewBox="0 0 24 24"><path d="M16 20c3.72-2 6-4.73 6-8 0-2.66-1.54-5.1-4.11-7h-.07a7.533 7.533 0 011.86 5c0 3-1.68 5-4.18 6.83 0 .01-1.12.71-2.5 1.58v-1.08L15 16s-.2-.6-.42-1.54C16.6 13.58 18 11.69 18 9.5c0-2.16-1.36-4.03-3.35-4.93C14.84 3.63 15 3 15 3l-3-2-3 2s.16.63.35 1.57C7.37 5.47 6 7.34 6 9.5c0 2.19 1.4 4.08 3.42 4.96C9.2 15.4 9 16 9 16l2 1.33v1.08c-1.38-.87-2.5-1.57-2.5-1.58C6 15 4.32 13 4.32 10c0-1.91.68-3.65 1.86-5h-.06C3.54 6.9 2 9.34 2 12c0 3.27 2.29 6 6 8l1-1.5 1.92 1.23L7.34 22 8 23l3-1.93V23h2v-1.93L16 23l.66-1-3.58-2.27L15 18.5l1 1.5m.75-10.5c0 1.59-.99 2.96-2.44 3.69-.17-.96-.31-2.07-.31-3.19 0-1.33.2-2.85.42-4.14 1.39.74 2.33 2.09 2.33 3.64m-9.5 0c0-1.55.94-2.9 2.34-3.64C9.8 7.15 10 8.67 10 10c0 1.12-.14 2.23-.31 3.19-1.45-.73-2.44-2.1-2.44-3.69z"/></svg>

<?xml version="1.0" encoding="UTF-8"?><!DOCTYPE svg PUBLIC "-//W3C//DTD SVG 1.1//EN" "http://www.w3.org/Graphics/SVG/1.1/DTD/svg11.dtd"><svg xmlns="http://www.w3.org/2000/svg" xmlns:xlink="http://www.w3.org/1999/xlink" version="1.1" id="mdi-khanda" width="24" height="24" viewBox="0 0 24 24"><path d="M16 20C19.72 18 22 15.27 22 12C22 9.34 20.46 6.9 17.89 5H17.82C19 6.35 19.68 8.09 19.68 10C19.68 13 18 15 15.5 16.83C15.5 16.84 14.38 17.54 13 18.41V17.33L15 16C15 16 14.8 15.4 14.58 14.46C16.6 13.58 18 11.69 18 9.5C18 7.34 16.64 5.47 14.65 4.57C14.84 3.63 15 3 15 3L12 1L9 3C9 3 9.16 3.63 9.35 4.57C7.37 5.47 6 7.34 6 9.5C6 11.69 7.4 13.58 9.42 14.46C9.2 15.4 9 16 9 16L11 17.33V18.41C9.62 17.54 8.5 16.84 8.5 16.83C6 15 4.32 13 4.32 10C4.32 8.09 5 6.35 6.18 5H6.12C3.54 6.9 2 9.34 2 12C2 15.27 4.29 18 8 20L9 18.5L10.92 19.73L7.34 22L8 23L11 21.07V23H13V21.07L16 23L16.66 22L13.08 19.73L15 18.5L16 20M16.75 9.5C16.75 11.09 15.76 12.46 14.31 13.19C14.14 12.23 14 11.12 14 10C14 8.67 14.2 7.15 14.42 5.86C15.81 6.6 16.75 7.95 16.75 9.5M7.25 9.5C7.25 7.95 8.19 6.6 9.59 5.86C9.8 7.15 10 8.67 10 10C10 11.12 9.86 12.23 9.69 13.19C8.24 12.46 7.25 11.09 7.25 9.5Z" /></svg>
